!!!!SEGMENT: pl-wtm--r-259-m--002_moniuszko-stanislaw--msza-gloria.krn
!!!cenid: 18xx:2528
!!!COM: Moniuszko, Stanisław
!!!COM-rismID: pe30008351
!!!CDT: 1819/05/05-1872/06/04
!!!CNT: Polish
!!!OPR: Msza
!!!OTL: Gloria
!!!OMV: 002
!!!PDT:
!!!AGN: Sacred; Mass
!!!SMS-siglum: PL-Wtm
!!!SMS-shelfmark: R 259/M
!!!SMS-shelfwork: 001-002 M
!!!SMS-variant:
!!!SMS-altvar:
!!!NIFC-rismSourceID: 1001095367
!!!NIFC-rismChildID: 1001095367
!!!NIFC-islandoraID:
!!!URL-pdf-islandora:
!!!URL-scan:
!!!ONB-nifc: UWAGA: części Mszy: 1. Kyrie, 2. Gloria, 3. Graduale, 4. Credo, 5. Offertorium, 6. Sanctus, 7. Benedictus, 8. Agnus
!!!AIN: 1 cbass 1 cello 2 organ 1 viola 2 violn
!!!key:
**kern	**dynam	**kern	**dynam	**kern	**dynam	**kern	**dynam	**kern	**dynam	**kern	**dynam	**kern	**dynam
*part7	*part7	*part6	*part6	*part5	*part5	*part4	*part4	*part3	*part3	*part2	*part2	*part1	*part1
*staff7	*	*staff6	*	*staff5	*	*staff4	*	*staff3	*	*staff2	*	*staff1	*
*Icbass	*	*Icello	*	*Iviola	*	*Ivioln	*	*Ivioln	*	*Iorgan	*	*Iorgan	*
*I"cbs.	*	*I"Vceli	*	*I"Vla.	*	*I"V.2	*	*I"V.I.	*	*I"Organo.	*	*I"Organo.	*
*clefF4	*	*clefF4	*	*clefC3	*	*clefG2	*	*clefG2	*	*clefF4	*	*clefG2	*
*Trd0c0	*	*	*	*	*	*	*	*	*	*	*	*	*
*k[b-e-a-]	*	*k[b-e-a-]	*	*k[b-e-a-]	*	*k[b-e-a-]	*	*k[b-e-a-]	*	*k[b-e-a-]	*	*k[b-e-a-]	*
*E-:	*	*E-:	*	*E-:	*	*E-:	*	*E-:	*	*E-:	*	*E-:	*
*M4/4	*	*M4/4	*	*M4/4	*	*M4/4	*	*M4/4	*	*M4/4	*	*M4/4	*
*met(c)	*	*met(c)	*	*met(c)	*	*met(c)	*	*met(c)	*	*met(c)	*	*met(c)	*
=1	=1	=1	=1	=1	=1	=1	=1	=1	=1	=1	=1	=1	=1
*all\right	*	*all\right	*	*all\right	*	*all\right	*	*all\right	*	*all\right	*	*all\right	*
*	*	*	*	*	*	*	*	*	*	*	*	*^	*
!LO:TX:a:t=Moderato	!	!	!	!	!	!	!	!LO:TX:a:t=Moderato	!	!	!	!LO:TX:a:t=Moderato	!	!LO:DY:rj
1r	.	1r	.	1r	.	1r	.	1r	.	2ryy	.	[1f	2d-X\	p
*	*	*	*	*	*	*	*	*	*	*2\right	*	*	*	*
.	.	.	.	.	.	.	.	.	.	2c\	.	.	4en\	.
.	.	.	.	.	.	.	.	.	.	.	.	.	4e-X\	.
=2	=2	=2	=2	=2	=2	=2	=2	=2	=2	=2	=2	=2	=2	=2
1r	.	1r	.	1r	.	1r	.	1r	.	2B-\	.	1f]	4d\	.
.	.	.	.	.	.	.	.	.	.	.	.	.	4d-X\	.
.	.	.	.	.	.	.	.	.	.	2An\	.	.	4c\	.
.	.	.	.	.	.	.	p	.	p	.	.	.	4e-\	.
=3	=3	=3	=3	=3	=3	=3	=3	=3	=3	=3	=3	=3	=3	=3
*	*	*	*	*	*	*	*	*	*	*	*	*	*2\right	*
1r	.	1r	.	4.B-/	.	4.d/	.	4.f/	.	2B-\	.	2f/	2d\	.
.	.	.	.	8B-/	.	8d/	.	8f/	.	.	.	.	.	.
.	.	.	.	4f\	.	4d/	.	4b-\	.	2r	.	2r	2ryy	.
.	.	.	.	4f\	.	4a-/	.	4cc\	.	.	.	.	.	.
*	*	*	*	*	*	*	*	*	*	*	*	*v	*v	*
=4	=4	=4	=4	=4	=4	=4	=4	=4	=4	=4	=4	=4	=4
1r	.	1r	.	4b-\	.	4b-/	.	4.dd\	.	1ryy	.	1ryy	.
.	.	.	.	4r	.	4r	.	.	.	.	.	.	.
.	.	.	.	.	.	.	.	8B-/	.	.	.	.	.
.	.	.	.	2r	.	4r	.	8d/L	.	.	.	.	.
.	.	.	.	.	.	.	.	8f/	.	.	.	.	.
.	.	.	.	.	.	8b-\L	.	8b-/	.	.	.	.	.
.	.	.	.	.	.	8dd\J	.	8dd/J	.	.	.	.	.
=5	=5	=5	=5	=5	=5	=5	=5	=5	=5	=5	=5	=5	=5
1r	.	1r	.	4.b-^\	.	4.dd^\	.	4.ff^\	.	1ryy	.	1ryy	.
.	.	.	.	8B-/	.	8cc\	.	8ee-\	.	.	.	.	.
.	.	.	.	8B-/	.	8b-\	.	8dd\	.	.	.	.	.
.	.	.	.	8r	.	8r	.	8r	.	.	.	.	.
.	.	.	.	4f\	.	4d/	.	4b-\	.	.	.	.	.
=6	=6	=6	=6	=6	=6	=6	=6	=6	=6	=6	=6	=6	=6
1r	.	2r	.	4.b-^\	.	4.f^/	.	4.dd^\	.	1ryy	.	1ryy	.
.	.	.	.	8B-/	.	8e-/	.	8cc\	.	.	.	.	.
.	.	4r	.	8B-/	.	8d/	.	8b-\	.	.	.	.	.
.	.	.	.	8r	.	8r	.	8r	.	.	.	.	.
*	*	*clefC4	*	*	*	*	*	*	*	*	*	*	*
.	.	4d\	.	4f\	.	4d/	.	4b-/	.	.	.	.	.
=7	=7	=7	=7	=7	=7	=7	=7	=7	=7	=7	=7	=7	=7
1ryy	.	4e-\	.	4g\	.	4e-/	.	4g/	.	1ryy	.	1ryy	.
.	.	4d\	.	4f\	.	4d/	.	4b-/	.	.	.	.	.
.	.	4c\	.	8g\L	.	4c/	.	4ee-\	.	.	.	.	.
.	.	.	.	8an\J	.	.	.	.	.	.	.	.	.
.	.	8d\L	.	4b-\	.	8d/L	.	4dd\	.	.	.	.	.
.	.	8e-\J	.	.	.	8e-/J	.	.	.	.	.	.	.
!!LO:PB:g=original
=8	=8	=8	=8	=8	=8	=8	=8	=8	=8	=8	=8	=8	=8
1r	.	1f	.	2b-\	.	1f	.	1cc	.	1r	.	1r	.
!	!	!	!	!	!	!	!	!	!	!	!LO:DY:a	!	!
.	.	.	.	2an\	.	.	.	.	.	.	p	.	.
=9	=9	=9	=9	=9	=9	=9	=9	=9	=9	=9	=9	=9	=9
*	*	*	*	*	*	*	*	*	*	*^	*	*	*
1r	.	4B-\	.	4b-\	.	4f/	.	4cc\	.	2F 2BB-/	1rGG	.	1ryy	.
.	.	4r	.	4r	.	4r	.	4r	.	.	.	.	.	.
.	.	2r	.	2r	.	2r	.	2r	.	4B- 4E- 4D/	.	.	.	.
.	.	.	.	.	.	.	.	.	.	4c 4A- 4F/	.	.	.	.
=10	=10	=10	=10	=10	=10	=10	=10	=10	=10	=10	=10	=10	=10	=10
1r	.	1r	.	1r	.	1r	.	1r	.	4.d 4.B-\	1rGG	.	1ryy	.
.	.	.	.	.	.	.	.	.	.	8BB-/	.	.	.	.
.	.	.	.	.	.	.	.	.	.	8D/L	.	.	.	.
.	.	.	.	.	.	.	.	.	.	8F/	.	.	.	.
.	.	.	.	.	.	.	.	.	.	8B-/	.	.	.	.
.	.	.	.	.	.	.	.	.	.	8d/J	.	.	.	.
=11	=11	=11	=11	=11	=11	=11	=11	=11	=11	=11	=11	=11	=11	=11
1ryy	.	1ryy	.	1ryy	.	1ryy	.	1ryy	.	4.B-/	1rGG	.	4.f 4.d/	.
.	.	.	.	.	.	.	.	.	.	8BB-/	.	.	8e- 8c/	.
.	.	.	.	.	.	.	.	.	.	8BB-/	.	.	8d 8B-/	.
.	.	.	.	.	.	.	.	.	.	8r	.	.	8r	.
.	.	.	.	.	.	.	.	.	.	4F 4D/	.	.	4B-/	.
=12	=12	=12	=12	=12	=12	=12	=12	=12	=12	=12	=12	=12	=12	=12
1ryy	.	1ryy	.	1ryy	.	1ryy	.	1ryy	.	4.F/	1rGG	.	4.d/	.
.	.	.	.	.	.	.	.	.	.	8F 8E-/	.	.	8c/	.
.	.	.	.	.	.	.	.	.	.	8F 8D/	.	.	8B-/	.
.	.	.	.	.	.	.	.	.	.	8r	.	.	8r	.
.	.	.	.	.	.	.	.	.	.	4F 4D/	.	.	4B-/	.
=13	=13	=13	=13	=13	=13	=13	=13	=13	=13	=13	=13	=13	=13	=13
*	*	*	*	*	*	*	*	*	*	*	*^	*	*	*
1ryy	.	1ryy	.	1ryy	.	1ryy	.	1ryy	.	4E-/	1rGG	2ryy	.	4G/	.
.	.	.	.	.	.	.	.	.	.	4E- 4D/	.	.	.	4B-/	.
.	.	.	.	.	.	.	.	.	.	2G/	.	4C/	.	4e-/	.
.	.	.	.	.	.	.	.	.	.	.	.	8D/L	.	4e- 4c/	.
.	.	.	.	.	.	.	.	.	.	.	.	8E-/J	.	.	.
*	*	*	*	*	*	*	*	*	*	*	*v	*v	*	*	*
=14	=14	=14	=14	=14	=14	=14	=14	=14	=14	=14	=14	=14	=14	=14
*	*	*	*	*	*	*	*	*	*	*	*	*	*^	*
1ryy	.	1ryy	.	1ryy	.	1ryy	.	1ryy	.	2A- 2F/	1rGG	.	1d	2c\	.
.	.	.	.	.	.	.	.	.	.	2G/	.	.	.	2Bn\	.
*	*	*	*	*	*	*	*	*	*	*	*	*	*v	*v	*
=15	=15	=15	=15	=15	=15	=15	=15	=15	=15	=15	=15	=15	=15	=15
1ryy	.	1ryy	.	1ryy	.	1ryy	.	1ryy	.	2G 2C/	1rGG	.	2e- 2c/	.
.	.	.	.	.	.	.	.	.	.	2r	.	.	2r	.
!!LO:PB:g=original
=16||	=16||	=16||	=16||	=16||	=16||	=16||	=16||	=16||	=16||	=16||	=16||	=16||	=16||	=16||
!	!	!LO:CL:color=dodgerblue	!	!	!	!	!	!	!	!	!	!	!	!
*	*	*clefF4	*	*	*	*	*	*	*	*	*	*	*	*
!LO:TX:a:t=Col Violc //	!LO:DY:rj	!LO:TX:b:i:t=Allegro	!LO:DY:rj	!	!LO:DY:rj	!	!LO:DY:rj	!LO:TX:a:t=Allegro	!LO:DY:rj	!	!	!	!LO:TX:a:t=Allegro	!LO:DY:rj
4..A-\yy	ffy	4..A-\	ff	4..a- 4..e-\	ff	4..a- 4..e-/	ff	4..ee-\	ff	4..c 4..A- 4..E-/	2.AA-\	.	4..ee- 4..cc 4..a- 4..e-/	f
16A-\yy	.	16A-\	.	16a- 16e-\	.	16a- 16e-/	.	16cc\	.	16c 16A- 16E-/	.	.	16cc 16a- 16e-/	.
4A-\yy	.	4A-\	.	4a- 4e-\	.	4a-/	.	4cc\	.	4c 4A- 4E-/	.	.	4cc 4a- 4e-/	.
4ryy	.	4r	.	4r	.	4r	.	4r	.	4rc	4r	.	4r	.
=17	=17	=17	=17	=17	=17	=17	=17	=17	=17	=17	=17	=17	=17	=17
4..G\yy	.	4..G\	.	4..b- 4..g\	.	4..b- 4..e-/	.	4..dd\	.	4..B- 4..G 4..E-/	2.GG\	.	4..ee- 4..b- 4..e-/	.
16G\yy	.	16G\	.	16b- 16g\	.	16b- 16e-/	.	16b-\	.	16B- 16G 16E-/	.	.	16b- 16e-/	.
4G\yy	.	4G\	.	4b- 4g\	.	4b- 4e-/	.	4b-\	.	4B- 4G 4E-/	.	.	4b- 4e-/	.
4ryy	.	4r	.	4r	.	4r	.	4r	.	4B- 4G/	4ryy	.	4ee- 4b- 4e-/	.
=18	=18	=18	=18	=18	=18	=18	=18	=18	=18	=18	=18	=18	=18	=18
4A-\yy	.	4A-\	.	4f\	.	8b-/	.	4dd\	.	4B- 4A-/	4AA-\	.	4dd 4b- 4f/	.
.	.	.	.	.	.	4b-/	.	.	.	.	.	.	.	.
4G\yy	.	4G\	.	4e-\	.	.	.	4ee-\	.	4e- 4B- 4G/	4GG\	.	4ee- 4b-/	.
.	.	.	.	.	.	4b-/	.	.	.	.	.	.	.	.
4F\yy	.	4F\	.	4d\	.	.	.	4ff\	.	4d 4B- 4F/	4FF\	.	4ff 4b- 4a-\	.
.	.	.	.	.	.	4a-/	.	.	.	.	.	.	.	.
4E-\yy	.	4E-\	.	4e-\	.	.	.	4gg\	.	4e- 4B- 4G 4E-/	4EE-\	.	4gg 4b- 4g\	.
.	.	.	.	.	.	[8b-/	.	.	.	.	.	.	.	.
=19	=19	=19	=19	=19	=19	=19	=19	=19	=19	=19	=19	=19	=19	=19
4D\yy	.	4D\	.	4f\	.	8b-/]	.	8aa-\L	.	2f 2d 2B- 2F/	4D 4DD\	.	2.aa- 2.ff 2.b-\	.
.	.	.	.	.	.	8b-\L	.	8a-\	.	.	.	.	.	.
4F\yy	.	4F\	.	4F/	.	8dd\	.	8dd\	.	.	4FF\	.	.	.
.	.	.	.	.	.	8ff\J	.	8ff\J	.	.	.	.	.	.
4B-\yy	.	4B-\	.	4B-/	.	4bb-\	.	4bb-\	.	4B-/	4BB-\	.	.	.
4ryy	.	4r	.	4r	.	4ff\	.	4ff\	.	4d 4B-/	4r	.	4ff 4b-/	.
=20	=20	=20	=20	=20	=20	=20	=20	=20	=20	=20	=20	=20	=20	=20
4..E-\yy	.	4..E-\	.	4..b- 4..g\	.	4..ee-\	.	4..gg 4..b-\	.	4..e- 4..B- 4..G 4..E-/	2EE-\	.	4..gg 4..b- 4..g/	.
16G\yy	.	16G\	.	16b- 16g\	.	16ee- 16g\	.	16ee-\	.	16e- 16B- 16G/	.	.	16ee- 16b- 16g/	.
4G\yy	.	4G\	.	4b- 4g\	.	4ee- 4g\	.	4ee-\	.	4e- 4B- 4G/	4GG\	.	4ee- 4b- 4g/	.
4ryy	.	4r	.	4r	.	4r	.	4r	.	4r	4r	.	4r	.
=21	=21	=21	=21	=21	=21	=21	=21	=21	=21	=21	=21	=21	=21	=21
4..A-\yy	.	4..A-\	.	4..a-\	.	4..cc 4..e-\	.	4..ee-\	.	4..c 4..G 4..E-/	2.AA-\	.	4..ee- 4..a- 4..e-/	.
16AA-/yy	.	16AA-/	.	16e-\	.	16a-/	.	16cc\	.	16c 16A-/	.	.	16cc 16a- 16e-/	.
4AA-/yy	.	4AA-/	.	4e-\	.	4a-/	.	4cc\	.	8cL 8A-/	.	.	8ccL 8a-/	.
.	.	.	.	.	.	.	.	.	.	8E-/	.	.	8e-/	.
8A-\Lyy	.	8A-\L	.	4r	.	4r	.	4r	.	8A-/	4r	.	8a-/	.
8G\Jyy	.	8G\J	.	.	.	.	.	.	.	8G/J	.	.	8g/J	.
=22	=22	=22	=22	=22	=22	=22	=22	=22	=22	=22	=22	=22	=22	=22
4A-\yy	.	4A-\	.	8d\L	.	8d/L	.	4b-\	.	4B- 4A-/	4AA-\	.	4b- 4f 4d/	.
.	.	.	.	8b-\	.	8b-/	.	.	.	.	.	.	.	.
4G\yy	.	4G\	.	8e-\	.	8e-/	.	4cc\	.	4c 4B- 4G/	4GG\	.	4cc 4b- 4e-/	.
.	.	.	.	8g\J	.	8g/J	.	.	.	.	.	.	.	.
4F\yy	.	4F\	.	8a-\L	.	8a-/L	.	4dd\	.	4d 4B- 4F/	4FF\	.	4dd 4b- 4a-/	.
.	.	.	.	8b-\	.	8b-/	.	.	.	.	.	.	.	.
4E-\yy	.	4E-\	.	8g\	.	8g/	.	4ee-\	.	4e- 4B- 4G 4E-/	4EE-\	.	4ee- 4b- 4g/	.
.	.	.	.	8e-\J	.	8e-/J	.	.	.	.	.	.	.	.
=23	=23	=23	=23	=23	=23	=23	=23	=23	=23	=23	=23	=23	=23	=23
4BB-/yy	.	4BB-/	.	8d\L	.	8d/L	.	8ff\L	.	2d 2B- 2F/	2BB-\	.	2dd 2b- 2f/	.
.	.	.	.	8f\	.	8f/	.	8b-\	.	.	.	.	.	.
4B-\yy	.	4B-\	.	8b-\	.	8b-/	.	8dd\	.	.	.	.	.	.
.	.	.	.	8dd\J	.	8ee-/J	.	8ff\J	.	.	.	.	.	.
4BB-/yy	.	4BB-/	.	4b- 4d^\	.	4dd 4f^/	.	4bb- 4b-^\	.	8r	2rGG	.	8r	.
.	.	.	.	.	.	.	.	.	.	(<8B-/L	.	.	(8b-/L	.
.	.	.	.	.	.	.	.	.	.	8qd/	.	.	8qdd/	.
4ryy	.	4r	.	4r	.	4r	.	4r	.	8c/	.	.	8cc/	.
.	.	.	.	.	.	.	.	.	.	8B-/J)	.	.	8b-/J)	.
*	*	*	*	*	*	*	*	*	*	*v	*v	*	*	*
!!LO:PB:g=original
=24	=24	=24	=24	=24	=24	=24	=24	=24	=24	=24	=24	=24	=24
!	!	!	!	!LO:TX:a:t=a:color=red	!	!	!	!	!	!	!	!LO:TX:a:t=a:color=red	!
1r	.	1r	.	1r	.	8r	p	8r	p	1r	.	2ee-\	p
!	!	!	!	!	!	!LO:S:color=dodgerblue	!	!LO:S:color=dodgerblue	!	!	!	!	!
.	.	.	.	.	.	(8e-/L	.	(8e-/L	.	.	.	.	.
.	.	.	.	.	.	8f/	.	8f/	.	.	.	.	.
.	.	.	.	.	.	8g/J)	.	8g/J)	.	.	.	.	.
!	!	!	!	!	!	!LO:S:color=dodgerblue	!	!LO:S:color=dodgerblue	!	!	!	!	!
.	.	.	.	.	.	(8a-/L	.	(8a-/L	.	.	.	4ee- 4cc\	.
.	.	.	.	.	.	8g/	.	8g/	.	.	.	.	.
.	.	.	.	.	.	8f/	.	8f/	.	.	.	4cc 4a-\	.
.	.	.	.	.	.	8e-/J)	.	8e-/J)	.	.	.	.	.
=25	=25	=25	=25	=25	=25	=25	=25	=25	=25	=25	=25	=25	=25
!	!	!	!	!	!	!LO:S:color=dodgerblue	!	!LO:S:color=dodgerblue	!	!	!	!	!
1r	.	1r	.	1r	.	(8d/L	.	(8d/L	.	1r	.	4cc 4a-/	.
.	.	.	.	.	.	8B-/	.	8B-/	.	.	.	.	.
.	.	.	.	.	.	8c/	.	8c/	.	.	.	8b-L 8g/	.
.	.	.	.	.	.	8d/J)	.	8d/J)	.	.	.	8a-J 8f/	.
!	!	!	!	!	!	!LO:S:color=dodgerblue	!	!LO:S:color=dodgerblue	!	!	!	!	!
.	.	.	.	.	.	(8e-/L	.	(8e-/L	.	.	.	8gL 8e-/	.
.	.	.	.	.	.	8f/	.	8f/	.	.	.	8gJ 8f/	.
.	.	.	.	.	.	8e-/	.	8e-/	.	.	.	4b- 4g/	.
.	.	.	.	.	p	8d/J)	.	8d/J)	.	.	.	.	.
=26	=26	=26	=26	=26	=26	=26	=26	=26	=26	=26	=26	=26	=26
*	*	*	*	*	*	*	*	*	*	*	*	*^	*
1r	.	8r	.	8r	.	(8c/L	.	8c/	.	1r	.	2cc/	2e-\	.
!	!	!LO:S:color=dodgerblue	!	!LO:S:color=dodgerblue	!	!	!	!	!	!	!	!	!	!
.	.	(8C/L	p	(8C/L	.	8g/J)	.	8r	.	.	.	.	.	.
.	.	8D/	.	8D/	.	4r	.	4ee-\	.	.	.	.	.	.
.	.	8E-/)	.	8E-/J)	.	.	.	.	.	.	.	.	.	.
!	!	!LO:S:color=dodgerblue	!	!LO:S:color=dodgerblue	!	!	!	!	!	!	!	!	!	!
.	.	(8F/	.	(8F/L	.	2r	.	4dd\	.	.	.	4a-/	4f\	.
.	.	8En/	.	8En/	.	.	.	.	.	.	.	.	.	.
.	.	8F/	.	8F/	.	.	.	4cc\	.	.	.	4f/	4f\	.
.	.	8A-/J)	.	8A-/J)	.	.	.	.	.	.	.	.	.	.
*	*	*	*	*	*	*	*	*	*	*	*	*v	*v	*
=27	=27	=27	=27	=27	=27	=27	=27	=27	=27	=27	=27	=27	=27
*	*	*	*	*	*	*	*	*2\right	*	*	*	*	*
!	!	!LO:S:color=dodgerblue	!	!LO:S:color=dodgerblue	!	!	!	!	!	!	!	!	!
!	!	!	!	!LO:ART:color=dodgerblue	!	!	!	!	!	!	!	!	!
2r	.	(8A-/L	.	(8A-^>/L	.	1r	.	2bn\	<	1r	.	4f/	.
.	.	8D/@	.	8D/@	.	.	.	.	.	.	.	.	.
.	.	8G/	.	8G/	.	.	.	.	.	.	.	8e-/L	.
.	.	8F/J)	.	8F/J)	.	.	.	.	.	.	.	8d/J	.
!	!	!LO:S:color=dodgerblue	!	!LO:S:color=dodgerblue	!	!	!	!	!	!	!	!	!
4r	.	(8E-/L	.	(8E-/L	.	.	.	8cc\L	.	.	.	4c/	.
.	.	8D/	.	8D/J	.	.	.	8dd\	.	.	.	.	.
8c\L	.	8C/	.	8C/)	.	.	.	8ee-\	[	.	.	4cc\	.
8B-\J	.	8BB-/J)	.	8r	.	.	f	8gg\J	f	.	.	.	f
=28	=28	=28	=28	=28	=28	=28	=28	=28	=28	=28	=28	=28	=28
*	*	*	*	*	*	*	*	*	*	*^	*	*	*
4..An\	.	4..An\	.	4..f 4..c\	.	4..cc\	.	4..ff\	.	4..c 4..An 4..F 4..C/	2.AAn\	.	4..ff 4..cc 4..f/	.
16A\	.	16A\	.	16f 16c\	.	16cc\	.	16cc\	.	16c 16A/	.	.	16cc 16f/	.
4A\	.	4A\	.	4f 4c\	.	4cc\	.	4cc\	.	4c 4A/	.	.	4cc 4f/	.
4r	.	4r	.	4r	.	4r	.	4r	.	4ryy	4r	.	4r	.
=29	=29	=29	=29	=29	=29	=29	=29	=29	=29	=29	=29	=29	=29	=29
4..G\	.	4..G\	.	4..g 4..G\	.	4..b- 4..g\	.	4..ee-\	.	4..e- 4..B- 4..G/	2.GG\	.	4..ee- 4..cc 4..g/	.
16G\	.	16G\	.	16g 16G\	.	16b- 16g\	.	16b-\	.	16e- 16B- 16G/	.	.	16b-/	.
4G\	.	4G\	.	4g 4G\	.	4b-\	.	4b-\	.	4e- 4B- 4G/	.	.	4b-/	.
4r	.	4r	.	4r	.	4r	.	4r	.	4ryy	4r	.	4r	.
=30	=30	=30	=30	=30	=30	=30	=30	=30	=30	=30	=30	=30	=30	=30
4F\	.	4F\	.	4f 4B-\	.	4b- 4d/	.	4dd\	.	4d 4B- 4F/	2FF\	.	4dd 4b- 4f/	.
4F\	.	4F\	.	4f 4B-\	.	4d/	.	4f/	.	4d 4B- 4F/	.	.	4f/	.
4D/	.	4D/	.	4f 4B-\	.	4f/	.	4b- 4d\	.	4d 4B- 4F/	4D\	.	4b- 4f/	.
4BB-/	.	4BB-/	.	4f 4B-\	.	4b- 4d/	.	4dd 4f\	.	4B- 4F/	4BB-\	.	4dd 4b- 4f 4d/	.
=31	=31	=31	=31	=31	=31	=31	=31	=31	=31	=31	=31	=31	=31	=31
*	*	*	*	*	*	*	*	*	*	*	*	*	*^	*
*	*	*	*	*	*	*	*	*	*	*	*	*	*	*^	*
*2\right	*	*2\right	*	*	*	*	*	*	*	*	*	*	*	*	*	*
2E-^\	.	2E-^\	.	2B-^/	.	2g^/	.	1cc	.	2B- 2G 2E-/	2EE-\	.	(1cc	2b- 2g\	2c\	.
4F\	.	2F\	.	2An/	.	4f/	.	.	.	2An 2F/	4FF\	.	.	2ryy	4f\	.
4r	.	.	.	.	.	4e-/	.	.	.	.	4r	.	.	.	4e-\	.
*	*	*	*	*	*	*	*	*	*	*	*	*	*	*v	*v	*
!!LO:PB:g=original
=32	=32	=32	=32	=32	=32	=32	=32	=32	=32	=32	=32	=32	=32	=32	=32
*	*	*	*	*	*	*	*	*	*	*	*^	*	*	*	*
!	!	!	!	!	!	!LO:TX:a:t=E:color=red	!	!	!	!	!	!	!	!	!	!LO:DY:rj
1r	.	4B-\	.	4B-/	p	8d/	.	8b-/L	p	4B-/	1r	1rEE	.	2.b-/)	4d\	p
.	.	.	.	.	.	8r	.	8d/	.	.	.	.	.	.	.	.
.	.	8c\L	p	8c/L	.	4r	.	8e-/	.	4r	.	.	.	.	4r	.
.	.	8d\J	.	8d/J	.	.	.	8f/J	.	.	.	.	.	.	.	.
.	.	8e-\L	.	8e-/L	.	2r	.	8g/L	.	2r	.	.	.	.	2r	.
.	.	8d\	.	8d/	.	.	.	8f/	.	.	.	.	.	.	.	.
.	.	8c\	.	8c/	.	.	.	8e-/	.	.	.	.	.	4g/	.	.
.	.	8B-\J	.	8B-/J	.	.	p	8d/J	.	.	.	.	.	.	.	.
*	*	*	*	*	*	*	*	*	*	*	*	*	*	*v	*v	*
=33	=33	=33	=33	=33	=33	=33	=33	=33	=33	=33	=33	=33	=33	=33	=33
1r	.	8An\L	.	8An/L	.	4e-^/	.	4g^/	.	2.ryy	1r	1rEE	.	(4g 4e-/	.
.	.	8F\	.	8F/	.	.	.	.	.	.	.	.	.	.	.
.	.	8G\	.	8G/	.	8d/L	.	8f/L	.	.	.	.	.	8fL 8d/	.
.	.	8A\J	.	8A/J	.	8c/J	.	8e-/J	.	.	.	.	.	8e-J 8c/	.
.	.	8B-\L	.	8B-/L	.	8d/	.	8B-/	.	.	.	.	.	4d 4B-/)	.
.	.	8c\	.	8c/	.	8r	.	8r	.	.	.	.	.	.	.
.	.	8B-\	.	8B-/	.	4r	.	4f/	.	(<8B-/L	.	.	.	4ryy	.
.	.	8G\J	.	8A/J	.	.	.	.	.	8An/J	.	.	.	.	.
*	*	*	*	*	*	*	*	*	*	*	*v	*v	*	*	*
=34	=34	=34	=34	=34	=34	=34	=34	=34	=34	=34	=34	=34	=34	=34
1r	.	4.G^\	.	8r	.	4B-/	.	4g/	.	8G/)	1r	.	1ryy	.
.	.	.	.	8G/L	.	.	.	.	.	8G/L	.	.	.	.
.	.	.	.	8An/	.	4d/	.	4b-/	.	8An/	.	.	.	.
.	.	8G\	.	8B-/J	.	.	.	.	.	8B-/J	.	.	.	.
!	!	!	!	!	!	!	!	!	!	!LO:TX:t=P:problem=mixed beam	!	!	!	!
.	.	4G\	.	8c/L	.	4e-/	.	4an/	.	8c/L	.	.	.	.
.	.	.	.	8B-/	.	.	.	.	.	8B-/	.	.	.	.
.	.	4E-\	.	8c/	.	4c/	.	4g/	.	8c/	.	.	.	.
.	.	.	.	8e-/J	.	.	.	.	.	8e->\J	.	.	.	.
=35	=35	=35	=35	=35	=35	=35	=35	=35	=35	=35	=35	=35	=35	=35
1r	.	4E-^\	.	(4e-^\	.	2An/	.	2f#X/	.	8E-/L	1r	.	4c/	.
.	.	.	.	.	.	.	.	.	.	8AA-/	.	.	.	.
.	.	8D\L	.	4d\)	.	.	.	.	.	8D/	.	.	8d/L	.
.	.	8C\J	.	.	.	.	.	.	.	8C/J	.	.	8e-/J	.
.	.	8BB-\L	.	4r	.	8G/	.	8g/L	.	8BB-/L	.	.	8gL 8d/	.
!	!	!	!	!	!	!	!	!	!	!	!	!	!LO:SIC:v:s=8an/	!
.	.	8D\	.	.	.	8r	.	8an/	.	8D/	.	.	8a-/	.
.	.	8G\	.	4d\	.	4r	.	8b-/	.	8G/	.	.	8b-/	.
.	.	8F#X\J	.	.	.	.	.	8dd/J	.	8F/J	.	.	8dd/J	.
=36	=36	=36	=36	=36	=36	=36	=36	=36	=36	=36	=36	=36	=36	=36
1r	.	4E-^\	.	4e-^\	.	8r	.	4.cc^\	.	4E-/	1r	.	4.cc/	.
.	.	.	.	.	.	8g/L	.	.	.	.	.	.	.	.
.	.	4F\	.	4c\	.	8f/	.	.	.	4F/	.	.	.	.
.	.	.	.	.	.	8e-/J	.	8an\	.	.	.	.	8an/	.
.	.	4G\	.	4B-\	.	8d/L	.	8b-\L	.	4G/	.	.	8b-/L	.
.	.	.	.	.	.	8f/	.	8cc\	.	.	.	.	8cc/	.
.	.	4GG/	.	4B-/	.	8b-/	.	8dd\	.	4BB-/	.	.	8dd/	.
.	.	.	.	.	.	8an/J	.	8ff\J	.	.	.	.	8ff/J	.
=37	=37	=37	=37	=37	=37	=37	=37	=37	=37	=37	=37	=37	=37	=37
*	*	*	*	*	*	*	*	*	*	*	*	*	*^	*
1r	.	4C^/	.	4.c^\	.	8g/L	.	4.ee-^\	.	4C/	1r	.	4.ee-/	2.ryy	.
.	.	.	.	.	.	8b-/J	.	.	.	.	.	.	.	.	.
.	.	4F/	.	.	.	4an/	.	.	.	4F/	.	.	.	.	.
.	.	.	.	8e-\	.	.	.	8cc\	.	.	.	.	8cc/	.	.
.	.	4BB-/	.	4d\	.	4b-/	.	4dd\	.	4BB-/	.	.	4dd/	.	.
*	*	*	*	*	*	*	*	*	*	*clefG2	*	*	*	*	*
.	.	4r	.	4r	.	4r	.	4r	.	(8B-/L	.	.	4dd/	4b-\	.
.	.	.	.	.	.	.	.	.	.	8d/J	.	.	.	.	.
=38	=38	=38	=38	=38	=38	=38	=38	=38	=38	=38	=38	=38	=38	=38	=38
1r	.	1r	.	1r	.	1r	.	1r	.	4g/	1r	.	(4.dd/	2.b-\	.
.	.	.	.	.	.	.	.	.	.	8f/L	.	.	.	.	.
.	.	.	.	.	.	.	.	.	.	8e-/J	.	.	8ee-/	.	.
.	.	.	.	.	.	.	.	.	.	4d/	.	.	4ff/	.	.
.	.	.	.	.	.	.	.	.	.	4f/	.	.	4cc/	4an\	.
=39	=39	=39	=39	=39	=39	=39	=39	=39	=39	=39	=39	=39	=39	=39	=39
1ryy	.	2r	.	2r	.	2r	.	2r	.	4c/	1r	.	4ee- 4a-X/	4ryy	.
.	.	.	.	.	.	.	.	.	.	4e-/	.	.	8b-/L	4g\	.
.	.	.	.	.	.	.	.	.	.	.	.	.	8cc/J	.	.
.	.	4r	.	4r	.	4r	pp	4r	.	4d/)	.	.	4dd/)	4f#X\	.
!	!	!	!LO:DY:rj	!	!LO:DY:rj	!	!	!	!LO:DY:rj	!	!	!	!	!	!
.	.	8F#X'\L	pp	8d'\L	pp	8an/L	.	8dd'\L	pp	4r	.	.	4r	4r	.
.	.	8F#'\J	.	8d'\J	.	8a/J	.	8dd'\J	.	.	.	.	.	.	.
*	*	*	*	*	*	*	*	*	*	*v	*v	*	*	*	*
*	*	*	*	*	*	*	*	*	*	*	*	*v	*v	*
!!LO:PB:g=original
=40	=40	=40	=40	=40	=40	=40	=40	=40	=40	=40	=40	=40	=40
1r	.	2F#X\	.	8an\L	.	8an/L	.	2dd 2d\	.	1r	.	1r	.
.	.	.	.	8cc\	.	8cc/	.	.	.	.	.	.	.
!	!	!	!	!	!	!LO:TX:a:t=d:color=blue	!	!	!	!	!	!	!
.	.	.	.	8dd@\	.	(8dd@/	.	.	.	.	.	.	.
.	.	.	.	8cc\J	.	8cc/J	.	.	.	.	.	.	.
.	.	[2G\	.	8b-\L	.	8b-/L	.	2cc#X 2en\	.	.	.	.	.
.	.	.	.	8a\	.	8a/	.	.	.	.	.	.	.
.	.	.	.	8b-\	.	8b-/	.	.	.	.	.	.	.
.	.	.	.	8g\J	.	8g/J)	.	.	.	.	.	.	.
=41	=41	=41	=41	=41	=41	=41	=41	=41	=41	=41	=41	=41	=41
1r	.	2G\]	.	8e-X\L	.	8e-/L	.	1ccn 1e-X	.	1r	.	(>1an	p
.	.	.	.	8c\	.	8c/	.	.	.	.	.	.	.
.	.	.	.	8d\	.	8d/	.	.	.	.	.	.	.
.	.	.	.	8e-\J	.	8e-/J	.	.	.	.	.	.	.
.	.	2Fn\	.	8f\L	.	8f/L	.	.	.	.	.	.	.
.	.	.	.	8g\	.	8g/	.	.	.	.	.	.	.
.	.	.	.	8f\	.	8f/	.	.	.	.	.	.	.
.	.	.	.	8e-\J	.	8e-/J	.	.	.	.	.	.	.
!	!	!	!	!	!	!	!	!	!	!LO:CL:ed	!	!	!
*	*	*	*	*	*	*	*	*	*	*clefF4	*	*	*
=42	=42	=42	=42	=42	=42	=42	=42	=42	=42	=42	=42	=42	=42
*	*	*	*	*	*	*	*	*	*	*^	*	*	*
1r	.	8BB-/	.	8d\	.	8d/	.	8b- 8d/	.	4r	1r	.	8b-/)	.
.	.	8r	ff	8r	ff	8r	ff	8r	ff	.	.	.	8r	ff
!	!	!	!	!	!	!LO:TX:a:t=Col 1°	!	!	!	!	!	!	!	!
.	.	8.B-\L	.	8.B-/L	.	8.b-Lyy 8.B-/yy	.	8.b-L 8.B-/	.	8.B-\L	.	.	8.b-/L	.
.	.	16B-\Jk	.	16B-/Jk	.	16b-Jkyy 16B-/yy	.	16b-Jk 16B-/	.	16B-'\Jk	.	.	16b-/Jk	.
.	.	4B-\|	.	4B-/|	.	4b-yy 4B-'/yy	.	4b- 4B-'/	.	4B-'\	.	.	4b-'/	.
.	.	4B-\|	.	4B-/|	.	4b-yy 4B-'/yy	.	4b- 4B-'/	.	4B-'\	.	.	4b-'/	.
=43	=43	=43	=43	=43	=43	=43	=43	=43	=43	=43	=43	=43	=43	=43
2r	.	4B-\	.	4a- 4B-^\	.	4..dd 4..f^/	.	4..ff 4..dd^\	.	4..d 4..B-/	2r	.	4..ff 4..b- 4..a- 4..f/	.
.	.	4r	.	4r	.	.	.	.	.	.	.	.	.	.
.	ff	.	.	.	.	16b- 16f/	.	16b-/	.	16d 16B-/	.	.	16b- 16a- 16f/	.
*	*	*	*	*	*	*	*	*	*	*	*2\left	*	*	*
4..B-^\	.	4..B-^\	.	4..B-^/	.	4b- 4f/	.	4b- 4d/	.	4d 4B-/	2B-\	.	4b- 4a- 4f/	.
.	.	.	.	.	.	4r	.	4r	.	4r	.	.	4r	.
16BB-/	.	16BB-/	.	16B-/	.	.	.	.	.	.	.	.	.	.
=44	=44	=44	=44	=44	=44	=44	=44	=44	=44	=44	=44	=44	=44	=44
4BB-/	.	4BB-/	.	4g 4B-^\	.	4..b- 4..g/	.	4..ee- 4..g^\	.	4..B-/	4BB-\	.	4..ee- 4..b- 4..g 4..e-/	.
4r	.	4r	.	4r	.	.	.	.	.	.	4r	.	.	.
.	.	.	.	.	.	16e-/	.	16b- 16g/	.	16B-/	.	.	16b- 16g 16e-/	.
*	*	*	*	*	*	*	*	*	*	*	*2\right	*	*	*
4..B-^\	.	4..B-^\	.	4..B-^/	.	4e-/	.	4b- 4g/	.	4B-/	2B-\	.	4b- 4g 4e-/	.
.	.	.	.	.	.	4r	.	4r	.	4r	.	.	4r	.
16BB-/	.	16BB-/	.	16B-/	.	.	.	.	.	.	.	.	.	.
=45	=45	=45	=45	=45	=45	=45	=45	=45	=45	=45	=45	=45	=45	=45
!LO:TX:a:t=Col voli	!	!	!	!	!	!	!	!	!	!	!	!	!	!
4BB-/yy	.	4BB-/	.	4B-/	.	4..b- 4..g^/	.	4..dd-X 4..f^\	.	[1d-X [1B-	4BB-\	.	[1dd-X [1b- [>1g [>1f	.
4ryy	.	4r	.	4r	.	.	.	.	.	.	4r	.	.	.
.	.	.	.	.	.	16b- 16g/	.	16dd- 16f/	.	.	.	.	.	.
4..B-^\yy	.	4..B-^\	.	4..B-^/	.	4b- 4g/	.	4dd- 4f/	.	.	2B-\	.	.	.
.	.	.	.	.	.	4a- 4f/	.	4dd- 4f/	.	.	.	.	.	.
16BB-/yy	.	16BB-/	.	16B-/	.	.	.	.	.	.	.	.	.	.
=46	=46	=46	=46	=46	=46	=46	=46	=46	=46	=46	=46	=46	=46	=46
4BB-/yy	.	4BB-/	.	4B-/	.	2b- 2g/	.	(2dd-X (2f/	.	(2d-] (2B-/]	4BB-\	.	(>2dd-X] 2b-] 2g] 2f/]	.
4ryy	.	4r	.	4r	.	.	.	.	.	.	4r	.	.	.
4..B-^\yy	.	4..B-^\	.	4..B-^/	.	4g/	.	4cc 4en/))	.	4c/))	2B-\	.	4cc 4g 4en/)	.
.	.	.	.	.	.	4r	.	4r	.	4ryy	.	.	4r	.
16BB-/yy	.	16BB-/	.	16B-/	.	.	.	.	.	.	.	.	.	.
=47	=47	=47	=47	=47	=47	=47	=47	=47	=47	=47	=47	=47	=47	=47
4BB-/yy	.	4BB-/	.	4B-/	.	4..cc 4..en 4..G/	.	4..gg 4..b-\	.	4..en 4..c 4..G/	4BB-\	.	4..gg 4..cc 4..b- 4..g/	.
4ryy	.	4r	.	4r	.	.	.	.	.	.	4r	.	.	.
.	.	.	.	.	.	16b- 16g/	.	16cc\	.	16e 16c/	.	.	16cc 16b- 16g/	.
4..B-^\yy	.	4..B-^\	.	4..B-^/	.	4b- 4g/	.	4cc\	.	4e 4c/	2B-\	.	4cc 4b- 4g/	.
.	.	.	.	.	.	4r	.	4r	.	4r	.	.	4r	.
16BB-/yy	.	16BB-/	.	16B-/	.	.	.	.	.	.	.	.	.	.
=48	=48	=48	=48	=48	=48	=48	=48	=48	=48	=48	=48	=48	=48	=48
4BB-/yy	.	4BB-/	.	4B-/	.	4..a- 4..c/	.	4..ff 4..cc\	.	4..c/	4BB-\	.	4..ff 4..cc 4..a- 4..f/	.
4ryy	.	4r	.	4r	.	.	.	.	.	.	4r	.	.	.
.	.	.	.	.	.	16a- 16c/	.	16cc 16f\	.	16c/	.	.	16cc 16a- 16f/	.
4..B-^\yy	.	4..B-^\	.	4..B-^/	.	4a- 4c/	.	4cc 4f\	.	4c/	2B-\	.	4cc 4a- 4f/	.
.	.	.	.	.	.	4r	.	4r	.	4r	.	.	4r	.
16BB-/yy	.	16BB-/	.	16B-/	.	.	.	.	.	.	.	.	.	.
!!LO:PB:g=original
=49	=49	=49	=49	=49	=49	=49	=49	=49	=49	=49	=49	=49	=49	=49
*	*	*	*	*	*	*	*	*	*	*	*	*	*^	*
*	*	*	*	*	*	*	*	*	*	*	*	*	*	*^	*
!LO:TX:a:t=//	!	!	!	!	!	!	!	!	!	!	!	!	!	!	!	!
4BB-/yy	.	4BB-/	.	4B-/	.	4.b- 4.g/	.	4.ee-\	.	2B-/	4BB-\	.	[1ee-	2g 2e-\	4ryy	.
4ryy	.	4r	.	4r	.	.	.	.	.	.	4ryy	.	.	.	4g\	.
.	.	.	.	.	.	8g/	.	8ee-\	.	.	.	.	.	.	.	.
4An\yy	.	4An\	.	4c/	.	4f#X/	.	4ee-\	.	4c/	4An\	.	.	2ryy	4f#X\	.
4B-\yy	.	4B-\	.	4B-/	.	4g/	.	4ee-\	.	4B-/	4B-\	.	.	.	4g\	.
*	*	*	*	*	*	*	*	*	*	*	*	*	*	*v	*v	*
=50	=50	=50	=50	=50	=50	=50	=50	=50	=50	=50	=50	=50	=50	=50	=50
.	.	.	.	.	.	.	.	8qqgg/	.	.	.	.	.	.	.
*	*	*	*	*2\right	*	*	*	*	*	*	*	*	*	*	*
4B-\yy	.	4B-\	.	2f\	.	4a-X/	.	4ee-\	.	4B-/	4B-\	.	(4ee-] 4a-X/	4fn\	.
4BB-/yy	.	4BB-/	.	.	.	(8fn/L	.	(8dd\L	.	4BB-/	4BB-\	.	8ddL 8f/	2.ryy	.
.	.	.	.	.	.	8e-/J)	.	8cc\J)	.	.	.	.	8ccJ 8e-/	.	.
8BB-/yy	.	8BB-/	.	8f\	.	8d/	.	8b-\	.	4BB-/	4BB-\	.	4b- 4d/)	.	.
8ryy	ffy	8r	ff	8r	ff	8r	.	8r	.	.	.	.	.	.	.
!	!	!	!	!	!	!	!	!	!LO:DY:rj	!	!	!	!	!	!
8C/Lyy	.	8C/L	.	8C/L	.	4b-\	.	4b-\	ff	8C/L	4r	.	4b- 4B-/	.	.
8D/Jyy	.	8D/J	.	8D/J	.	.	.	.	.	8D/J	.	.	.	.	.
*	*	*	*	*	*	*	*	*	*	*	*	*	*v	*v	*
=51	=51	=51	=51	=51	=51	=51	=51	=51	=51	=51	=51	=51	=51	=51
*	*	*	*	*	*	*	*	*	*	*	*	*	*^	*
!LO:TX:b:t=a=	!	!	!	!LO:TX:a:t=J:color=red	!	!LO:TX:a:t=a=	!	!	!	!	!	!	!LO:TX:a:t=J:color=red	!LO:TX:a:t=a=	!
4E-\	.	8E-\L	.	8E-/L	.	8e-/L	.	4b-\	.	4E-/	4EE-\	.	4b- 4g 4e-/	4ryy	.
.	.	8E-\	.	8E-/	.	8e-/	.	.	.	.	.	.	.	.	.
8E-\L	.	8F\	.	8F/	.	8f/	.	4gg\	.	8F/L	8FF\L	.	4gg 4b-/	4g\	.
8F\J	.	8G\J	.	8G/J	.	8g/J	.	.	.	8G/J	8GG\J	.	.	.	.
4.A-\	.	8A-\L	.	8A-/L	.	8a-/L	.	4.ff\	.	8A-/L	4.AA-\	.	4.ff/	2cc 2f\	.
.	.	8G\	.	8G/	.	8g/	.	.	.	8G/	.	.	.	.	.
.	.	8A-\	.	8A-/	.	8a-/	.	.	.	8A-/	.	.	.	.	.
8An\	.	8An\J	.	8An/J	.	8an/J	.	8ee-\	.	8An/J	8AAn\	.	8ee-/	.	.
=52	=52	=52	=52	=52	=52	=52	=52	=52	=52	=52	=52	=52	=52	=52	=52
4.B-\	.	8B-\L	.	8B-/L	.	8b-/L	.	4.dd\	.	8B-/L	4.BB-\	.	2dd/	1a- 1f	.
.	.	8An\	.	8An/	.	8an/	.	.	.	8A-/	.	.	.	.	.
.	.	8B-\	.	8B-/	.	8b-/	.	.	.	8B-/	.	.	.	.	.
8Bn\	.	8Bn\J	.	8Bn/J	.	8bn/J	.	8dd\	.	8Bn/J	8BBn\	.	.	.	.
4.c\	.	8c\L	.	8c/L	.	8cc/L	.	4.cc\	.	8c/L	4.C\	.	4cc/	.	.
.	.	8B\	.	8B/	.	8f/	.	.	.	8B/	.	.	.	.	.
.	.	8c\	.	8c/	.	8cc/	.	.	.	8c/	.	.	4b-/	.	.
8d\	.	8d\J	.	8d/J	.	8b/J	.	8b-\	.	8d/J	8D\	.	.	.	.
=53	=53	=53	=53	=53	=53	=53	=53	=53	=53	=53	=53	=53	=53	=53	=53
!	!	!	!	!LO:TX:t=P:problem=mixed beam	!	!	!	!	!	!	!	!	!	!	!
8e-\L	.	8g\L	.	8e-\L	.	8g/L	.	4a-\	.	8e-/L	4E-\	.	4b- 4g 4e-/	4ryy	.
8E-\	.	8E-\	.	8E-/	.	8e-/	.	.	.	8E-/	.	.	.	.	.
8F\	.	8F\	.	8F/	.	8f/	.	4gg\	.	8F/	8r	.	4gg 4b- 4g/	4ryy	.
8G\J	.	8G\J	.	8G/J	.	8g/J	.	.	.	8G/J	8GG\	.	.	.	.
4.A-\	.	8A-\L	.	8A-/L	.	8a-/L	.	4.ff\	.	8A-/L	4.AA-\	.	4.ff/	2cc 2f\	.
.	.	8G\	.	8G/	.	8g/	.	.	.	8G/	.	.	.	.	.
.	.	8A-\	.	8A-/	.	8a-/	.	.	.	8A-/	.	.	.	.	.
8An\	.	8An\J	.	8An/J	.	8an/J	.	8ee-\	.	8An/J	8AAn\	.	8ee-/	.	.
=54	=54	=54	=54	=54	=54	=54	=54	=54	=54	=54	=54	=54	=54	=54	=54
4.B-\	.	8B-\L	.	8B-/L	.	8b-/L	.	4ee-\	.	8B-/L	4.BB-\	.	4ee-/	1a- 1f	.
.	.	8An\	.	8An/	.	8an/	.	.	.	8A/	.	.	.	.	.
.	.	8B-\	.	8B-/	.	8b-/	.	4dd\	.	8B-/	.	.	4dd/	.	.
8Bn\	.	8Bn\J	.	8Bn/J	.	8bn/J	.	.	.	8Bn/J	8BBn\	.	.	.	.
4.c\	.	8c\L	.	8c/L	.	8cc/L	.	4.cc\	.	8c/L	4.C\	.	4cc/	.	.
!	!	!	!	!	!	!LO:TX:a:t=P:problem=oddzielna ósemka	!	!	!	!	!	!	!	!	!
.	.	8B\	.	8Bn/	.	8f/	.	.	.	8B/	.	.	.	.	.
.	.	8c\	.	8c/	.	8cc/	.	.	.	8c/	.	.	4b-/	.	.
8d\	.	8d\J	.	8d/J	.	8b/J	.	8b-\	.	8d/J	8D\	.	.	.	.
=55	=55	=55	=55	=55	=55	=55	=55	=55	=55	=55	=55	=55	=55	=55	=55
4.e-\	.	8e-\L	.	8e-\L	.	8g/L	.	4.b-\	.	8e-/L	4.E-\	.	4.b-/	8g\L	.
.	.	8f\	.	8f\	.	8a-/	.	.	.	8f/	.	.	.	8a-\	.
.	.	8e-\	.	8e-\	.	8g/	.	.	.	8e-/	.	.	.	8g\	.
8d\	.	8d\J	.	8d\J	.	8f/J	.	8bn\	.	8d/J	8D\	.	8bn/	8f\J	.
4.c\	.	8c\L	.	8c\L	.	8e-/L	.	4.cc\	.	8c/L	4.C\	.	4.cc/	8e-\L	.
.	.	8d\	.	8d\	.	8f/	.	.	.	8d/	.	.	.	8f\	.
.	.	8c\	.	8c\	.	8e-/	.	.	.	8c/	.	.	.	8e-\	.
!	!	!	!	!	!	!LO:TX:a:t=P:problem=oddzielna ósemka	!	!	!	!	!	!	!	!	!
8B-\	.	8B-\J	.	8B-\J	.	8f\J	.	8dd\	.	8B-/J	8BB-\	.	8dd/	8g\J	.
!!LO:PB:g=original
=56	=56	=56	=56	=56	=56	=56	=56	=56	=56	=56	=56	=56	=56	=56	=56
4.A-\	.	8A-\L	.	8a-\L	.	8cc\L	.	4.ee-\	.	8A-/L	4.AA-\	.	4.ee-/	8cc\L	.
.	.	8B-\	.	8b-\	.	8dd\	.	.	.	8B-/	.	.	.	8dd\	.
.	.	8A-\	.	8a-\	.	8cc\	.	.	.	8A-/	.	.	.	8cc\	.
8G\	.	8G\J	.	8g\J	.	8b-\J	.	8een\	.	8G/J	8GG\	.	8een/	8b-\J	.
4.F\	.	8F\L	.	8f\L	.	8a-/L	.	4.ff\	.	8F/L	4FF\	.	4.ff/	8a-\L	.
.	.	8G\	.	8g\	.	8b-/	.	.	.	8G/	.	.	.	8b-\	.
.	.	8F\	.	8f\	.	8a-/	.	.	.	8F/	8F\L	.	.	8a-\	.
8E-\	.	8E-\J	.	8e-\J	.	8g/J	.	8gg\	.	8E-/J	8E-\J	.	8gg/	8cc\J	.
=57	=57	=57	=57	=57	=57	=57	=57	=57	=57	=57	=57	=57	=57	=57	=57
*	*	*	*	*	*	*2\right	*	*	*	*	*	*	*	*	*
8D/L	.	8D/L	.	8d\L	.	2ff^\	.	2aa- 2b-^\	.	8D/L	8D\L	.	2aa- 2ff/	8b-\L	.
8BB-/	.	8BB-/	.	8B-\	.	.	.	.	.	8BB-/	8BB-\	.	.	8dd\	.
8C/	.	8C/	.	8c\	.	.	.	.	.	8C/	8C\	.	.	8ee-\	.
8D/J	.	8D/J	.	8d\J	.	.	.	.	.	8D/J	8D\J	.	.	8b-\J	.
!	!	!	!	!	!	!	!	!	!	!LO:N:vis=2	!	!	!	!	!
8E-\L	.	8E-\L	.	8e-\L	.	4ee-\	.	4gg\	.	8E-/L	2E-\	.	4gg/	4ee-\	.
8F\J	.	8F\J	.	8B-\J	.	.	.	.	.	8F/J	.	.	.	.	.
8G\L	.	8G\L	.	8G/L	.	4b-\	.	4ee-\	.	8G/L	.	.	4ee-/	4b-\	.
!LO:N:vis=8	!	!	!	!	!	!	!	!	!	!	!	!	!	!	!
16A-\L	.	16A-\L	.	16A-/L	.	.	.	.	.	16A-/L	.	.	.	.	.
!LO:N:vis=8	!	!	!	!	!	!	!	!	!	!	!	!	!	!	!
16B-\JJ	.	16B-\JJ	.	16B-/JJ	.	.	.	.	.	16B-/JJ	.	.	.	.	.
*	*	*	*	*	*	*	*	*	*	*	*	*	*v	*v	*
=58	=58	=58	=58	=58	=58	=58	=58	=58	=58	=58	=58	=58	=58	=58
*2\left	*	*	*	*	*	*	*	*	*	*	*	*	*	*
2c-X\	.	8c-X\L	.	8c-X/L	.	4a-/	.	4dd\	.	8c-X/L	2C-X\	.	4ee- 4a-/	.
.	.	8B-\	.	8B-/	.	.	.	.	.	8B-/	.	.	.	.
.	.	8c-\	.	8c-/	.	4a-/	.	4ee- 4f\	.	8c-/	.	.	4ee- 4a-/	.
.	.	8A-\J	.	8A-/J	.	.	.	.	.	8A-/J	.	.	.	.
!	!	!LO:TX:t=P:problem=mixed beam	!	!	!	!	!	!	!	!	!	!	!	!
4B-\	.	8B-\L	.	8B-/L	.	2a-/	.	2dd 2f\	.	8B-/L	2BB-\	.	2dd 2a- 2f/	.
.	.	8F\	.	8F/	.	.	.	.	.	8E-/	.	.	.	.
4BB-/	.	8B-\	.	8B-/	.	.	.	.	.	8B-/	.	.	.	.
!LO:TX:b:i:t==B	!	!	!	!	!	!LO:TX:a:t==B	!	!	!	!	!	!	!LO:TX:a:t==B	!
.	.	8BB-/J	.	8B-/J	.	.	.	.	.	8BB-/J	.	.	.	.
=59	=59	=59	=59	=59	=59	=59	=59	=59	=59	=59	=59	=59	=59	=59
*	*	*	*	*	*	*	*	*	*	*	*	*	*^	*
!	!	!	!	!LO:TX:a::t=corno sopra A=B.	!	!	!	!	!	!LO:TX:a:t=a=B	!	!	!	!	!
4E-\yy	.	8E-\Lyy	.	8E-/Lyy	.	8e-/Lyy	.	4ee-\	.	4E-/yy	4EE-\yy	.	4b-yy 4gyy 4e-/yy	4ryy	.
.	.	8E-\yy	.	8E-/yy	.	8e-/yy	.	.	.	.	.	.	.	.	.
8E-\Lyy	.	8F\yy	.	8F/yy	.	8f/yy	.	4gg\	.	8F/Lyy	8FF\Lyy	.	4ggyy 4b-/yy	4g\yy	.
8F\Jyy	.	8G\Jyy	.	8G/Jyy	.	8g/Jyy	.	.	.	8G/Jyy	8GG\Jyy	.	.	.	.
4.A-\yy	.	8A-\Lyy	.	8A-/Lyy	.	8a-/Lyy	.	4.ff\	.	8A-/Lyy	4.AA-\yy	.	4.ff/yy	2ccyy 2f\yy	.
.	.	8G\yy	.	8G/yy	.	8g/yy	.	.	.	8G/yy	.	.	.	.	.
.	.	8A-\yy	.	8A-/yy	.	8a-/yy	.	.	.	8A-/yy	.	.	.	.	.
8An\yy	.	8An\Jyy	.	8An/Jyy	.	8an/Jyy	.	8ee-\	.	8An/Jyy	8AAn\yy	.	8ee-/yy	.	.
=60	=60	=60	=60	=60	=60	=60	=60	=60	=60	=60	=60	=60	=60	=60	=60
4.B-\yy	.	8B-\Lyy	.	8B-/Lyy	.	8b-/Lyy	.	4.dd\	.	8B-/Lyy	4.BB-\yy	.	2dd/yy	1a-yy 1fyy	.
.	.	8An\yy	.	8An/yy	.	8an/yy	.	.	.	8A-/yy	.	.	.	.	.
.	.	8B-\yy	.	8B-/yy	.	8b-/yy	.	.	.	8B-/yy	.	.	.	.	.
8Bn\yy	.	8Bn\Jyy	.	8Bn/Jyy	.	8bn/Jyy	.	8dd\	.	8Bn/Jyy	8BBn\yy	.	.	.	.
4.c\yy	.	8c\Lyy	.	8c/Lyy	.	8cc/Lyy	.	4.cc\	.	8c/Lyy	4.C\yy	.	4cc/yy	.	.
.	.	8B\yy	.	8B/yy	.	8f/yy	.	.	.	8B/yy	.	.	.	.	.
.	.	8c\yy	.	8c/yy	.	8cc/yy	.	.	.	8c/yy	.	.	4b-/yy	.	.
8d\yy	.	8d\Jyy	.	8d/Jyy	.	8b/Jyy	.	8b-\	.	8d/Jyy	8D\yy	.	.	.	.
=61	=61	=61	=61	=61	=61	=61	=61	=61	=61	=61	=61	=61	=61	=61	=61
!	!	!	!	!LO:TX:t=P:problem=mixed beam	!	!	!	!	!	!	!	!	!	!	!
8e-\Lyy	.	8g\Lyy	.	8e-\Lyy	.	8g/Lyy	.	4a-\	.	8e-/Lyy	4E-\yy	.	4b-yy 4gyy 4e-/yy	4ryy	.
8E-\yy	.	8E-\yy	.	8E-/yy	.	8e-/yy	.	.	.	8E-/yy	.	.	.	.	.
8F\yy	.	8F\yy	.	8F/yy	.	8f/yy	.	4gg\	.	8F/yy	8ryy	.	4ggyy 4b-yy 4g/yy	4ryy	.
8G\Jyy	.	8G\Jyy	.	8G/Jyy	.	8g/Jyy	.	.	.	8G/Jyy	8GG\yy	.	.	.	.
4.A-\yy	.	8A-\Lyy	.	8A-/Lyy	.	8a-/Lyy	.	4.ff\	.	8A-/Lyy	4.AA-\yy	.	4.ff/yy	2ccyy 2f\yy	.
.	.	8G\yy	.	8G/yy	.	8g/yy	.	.	.	8G/yy	.	.	.	.	.
.	.	8A-\yy	.	8A-/yy	.	8a-/yy	.	.	.	8A-/yy	.	.	.	.	.
8An\	.	8An\Jyy	.	8An/Jyy	.	8an/Jyy	.	8ee-\	.	8An/Jyy	8AAn\yy	.	8ee-/yy	.	.
=62	=62	=62	=62	=62	=62	=62	=62	=62	=62	=62	=62	=62	=62	=62	=62
4.B-\yy	.	8B-\Lyy	.	8B-/Lyy	.	8b-/Lyy	.	4ee-\	.	8B-/Lyy	4.BB-\yy	.	4ee-/yy	1a-yy 1fyy	.
.	.	8An\yy	.	8An/yy	.	8an/yy	.	.	.	8A-/yy	.	.	.	.	.
.	.	8B-\yy	.	8B-/yy	.	8b-/yy	.	4dd\	.	8B-/yy	.	.	4dd/yy	.	.
8Bn\yy	.	8Bn\Jyy	.	8Bn/Jyy	.	8bn/Jyy	.	.	.	8Bn/Jyy	8BBn\yy	.	.	.	.
4.c\yy	.	8c\Lyy	.	8c/Lyy	.	8cc/Lyy	.	4.cc\	.	8c/Lyy	4.C\yy	.	4cc/yy	.	.
!	!	!	!	!	!	!LO:TX:a:t=P:problem=oddzielna ósemka	!	!	!	!	!	!	!	!	!
.	.	8B\yy	.	8Bn/yy	.	8f/yy	.	.	.	8B/yy	.	.	.	.	.
.	.	8c\yy	.	8c/yy	.	8cc/yy	.	.	.	8c/yy	.	.	4b-/yy	.	.
8d\yy	.	8d\Jyy	.	8d/Jyy	.	8b/Jyy	.	8b-\	.	8d/Jyy	8D\yy	.	.	.	.
!!LO:PB:g=original
=63	=63	=63	=63	=63	=63	=63	=63	=63	=63	=63	=63	=63	=63	=63	=63
4.e-\yy	.	8e-\Lyy	.	8e-\Lyy	.	8g/Lyy	.	4.b-\	.	8e-/Lyy	4.E-\yy	.	4.b-/yy	8g\Lyy	.
.	.	8f\yy	.	8f\yy	.	8a-/yy	.	.	.	8f/yy	.	.	.	8a-\yy	.
.	.	8e-\yy	.	8e-\yy	.	8g/yy	.	.	.	8e-/yy	.	.	.	8g\yy	.
8d\yy	.	8d\Jyy	.	8d\Jyy	.	8f/Jyy	.	8bn\	.	8d/Jyy	8D\yy	.	8bn/yy	8f\Jyy	.
4.c\yy	.	8c\Lyy	.	8c\Lyy	.	8e-/Lyy	.	4.cc\	.	8c/Lyy	4.C\yy	.	4.cc/yy	8e-\Lyy	.
.	.	8d\yy	.	8d\yy	.	8f/yy	.	.	.	8d/yy	.	.	.	8f\yy	.
.	.	8c\yy	.	8c\yy	.	8e-/yy	.	.	.	8c/yy	.	.	.	8e-\yy	.
!	!	!	!	!	!	!LO:TX:a:t=P:problem=oddzielna ósemka	!	!	!	!	!	!	!	!	!
8B-\yy	.	8B-\Jyy	.	8B-\Jyy	.	8f\Jyy	.	8dd\	.	8B-/Jyy	8BB-\yy	.	8dd/yy	8g\Jyy	.
=64	=64	=64	=64	=64	=64	=64	=64	=64	=64	=64	=64	=64	=64	=64	=64
4.A-\yy	.	8A-\Lyy	.	8a-\Lyy	.	8cc\Lyy	.	4.ee-\	.	8A-/Lyy	4.AA-\yy	.	4.ee-/yy	8cc\Lyy	.
.	.	8B-\yy	.	8b-\yy	.	8dd\yy	.	.	.	8B-/yy	.	.	.	8dd\yy	.
.	.	8A-\yy	.	8a-\yy	.	8cc\yy	.	.	.	8A-/yy	.	.	.	8cc\yy	.
8G\yy	.	8G\Jyy	.	8g\Jyy	.	8b-\Jyy	.	8een\	.	8G/Jyy	8GG\yy	.	8een/yy	8b-\Jyy	.
4.F\yy	.	8F\Lyy	.	8f\Lyy	.	8a-/Lyy	.	4.ff\	.	8F/Lyy	4FF\yy	.	4.ff/yy	8a-\Lyy	.
.	.	8G\yy	.	8g\yy	.	8b-/yy	.	.	.	8G/yy	.	.	.	8b-\yy	.
.	.	8F\yy	.	8f\yy	.	8a-/yy	.	.	.	8F/yyyy	8F\Lyy	.	.	8a-\yy	.
8E-\yy	.	8E-\Jyy	.	8e-\Jyy	.	8g/Jyy	.	8gg\	.	8E-/Jyy	8E-\Jyy	.	8gg/yy	8cc\Jyy	.
=65	=65	=65	=65	=65	=65	=65	=65	=65	=65	=65	=65	=65	=65	=65	=65
8D/Lyy	.	8D/Lyy	.	8d\Lyy	.	2ff^\yy	.	2aa- 2b-\	.	8D/Lyy	8D\Lyy	.	2aa-yy 2ff/yy	8b-\Lyy	.
8BB-/yy	.	8BB-/yy	.	8B-\yy	.	.	.	.	.	8BB-/yy	8BB-\yy	.	.	8dd\yy	.
8C/yy	.	8C/yy	.	8c\yy	.	.	.	.	.	8C/yy	8C\yy	.	.	8ee-\yy	.
8D/Jyy	.	8D/Jyy	.	8d\Jyy	.	.	.	.	.	8D/Jyy	8D\Jyy	.	.	8b-\Jyy	.
!	!	!	!	!	!	!	!	!	!	!LO:N:vis=2	!	!	!	!	!
8E-\Lyy	.	8E-\Lyy	.	8e-\Lyy	.	4ee-\yy	.	4gg\	.	8E-/Lyy	2E-\yy	.	4gg/yy	4ee-\yy	.
8F\Jyy	.	8F\Jyy	.	8B-\Jyy	.	.	.	.	.	8F/Jyy	.	.	.	.	.
8G\Lyy	.	8G\Lyy	.	8G/Lyy	.	4b-\yy	.	4ee-\	.	8G/Lyy	.	.	4ee-/yy	4b-\yy	.
!LO:N:vis=8	!	!	!	!	!	!	!	!	!	!	!	!	!	!	!
16A-\Lyy	.	16A-\Lyy	.	16A-/Lyy	.	.	.	.	.	16A-/Lyy	.	.	.	.	.
!LO:N:vis=8	!	!	!	!	!	!	!	!	!	!	!	!	!	!	!
16B-\JJyy	.	16B-\JJyy	.	16B-/JJyy	.	.	.	.	.	16B-/JJyy	.	.	.	.	.
*	*	*	*	*	*	*	*	*	*	*	*	*	*v	*v	*
=66	=66	=66	=66	=66	=66	=66	=66	=66	=66	=66	=66	=66	=66	=66
2c-X\yy	.	8c-X\Lyy	.	8c-X/Lyy	.	4a-/yy	.	4dd\	.	8c-X/Lyy	2C-X\yy	.	4ee-yy 4a-/yy	.
.	.	8B-\yy	.	8B-/yy	.	.	.	.	.	8B-/yy	.	.	.	.
.	.	8c-\yy	.	8c-/yy	.	4a-/yy	.	4ee- 4f/	.	8c-/yy	.	.	4ee-yy 4a-/yy	.
.	.	8A-\Jyy	.	8A-/Jyy	.	.	.	.	.	8A-/Jyy	.	.	.	.
!	!	!LO:TX:t=P:problem=mixed beam	!	!	!	!	!	!	!	!	!	!	!	!
4B-\yy	.	8B-\Lyy	.	8B-/Lyy	.	2a-/yy	.	4dd 4f/	.	8B-/Lyy	2BB-\yy	.	2ddyy 2a-yy 2f/yy	.
.	.	8F\yy	.	8F/yy	.	.	.	.	.	8E-/yy	.	.	.	.
4BB-/yy	.	8B-\yy	.	8B-/yy	.	.	.	4ff\	.	8B-/yy	.	.	.	.
.	.	8BB-/Jyy	.	8B-/Jyy	.	.	.	.	.	8BB-/Jyy	.	.	.	.
=67	=67	=67	=67	=67	=67	=67	=67	=67	=67	=67	=67	=67	=67	=67
*	*	*	*	*	*	*	*	*	*	*	*	*	*^	*
*	*	*	*	*	*	*	*	*	*	*	*	*	*	*^	*
!	!	!LO:TX:a:t=ca CB	!	!	!	!	!	!	!LO:DY:rj	!	!	!	!	!	!	!
4d-X^\	.	4d-X^\yy	.	4d-X^\	.	4b-^\	.	4.een 4.b- 4.g\	sf	4d-X 4B-/	4D-X\	.	2een/	4dd-X 4b-\	2g\	.
8c\L	.	8c\Lyy	.	8c/L	.	8cc\L	.	.	.	8c/L	4C\	.	.	8cc\L	.	.
8B-\J	.	8B-\Jyy	.	8B-/J	.	8dd-XJ 8a-\	.	8ee\	.	8B-/J	.	.	.	8dd-X\J	.	.
8A-\L	.	8A-\Lyy	.	8A-/L	.	8ccL 8f/	.	4.ff\	.	8A-/L	2r	.	2ff/	8cc\L	2ryy	.
8G\J	.	8G\Jyy	.	8G/J	.	8b-J/	.	.	.	8G/J	.	.	.	8b-\J	.	.
4F\	.	4F\yy	.	4F/	.	4a-/	.	.	.	4F/	.	.	.	4a-\	.	.
.	.	.	.	.	.	.	.	8ff\	.	.	.	.	.	.	.	.
.	.	.	.	.	.	.	.	.	sf	.	.	.	.	.	.	.
*	*	*	*	*	*	*	*	*	*	*	*	*	*	*v	*v	*
=68	=68	=68	=68	=68	=68	=68	=68	=68	=68	=68	=68	=68	=68	=68	=68
4e-\	.	4e-\yy	.	4e-\	.	4cc^\	.	4.ff#X 4.an\	.	4e- 4c/	4E-\	.	2ff#X 2an/	4cc\	.
8dn\L	.	8dn\Lyy	.	8dn\L	.	8ddn\L	.	.	.	8dn/L	4Dn\	.	.	8dd\L	.
8c\J	.	8c\Jyy	.	8c\J	.	8ee-J\	.	8ff#\	.	8c/J	.	.	.	8ee-\J	.
8B-\L	.	8B-\Lyy	.	8B-/L	.	8ddL/	.	4.gg\@	.	8B-/L	2r	.	4gg/	8dd\L	.
8An\J	.	8An\Jyy	.	8An/J	.	8ccJ/	.	.	.	8An/J	.	.	.	8cc\J	.
4G\	.	4G\yy	.	4G/	.	4b-/	.	.	.	4G/	.	.	4ryy	4b-\	.
!	!	!	!	!	!	!	!	!LO:S:color=dodgerblue	!	!	!	!	!	!	!
.	.	.	.	.	.	.	.	[8gg\@	.	.	.	.	.	.	.
*	*	*	*	*	*	*	*	*	*	*	*	*	*v	*v	*
=69	=69	=69	=69	=69	=69	=69	=69	=69	=69	=69	=69	=69	=69	=69
4c\	.	4c\	.	8g\	.	8ee-\	.	8gg\]	.	2e- 2c/	2C\	.	2gg 2ee- 2g/	.
.	.	.	.	4g\	.	4ee-\	.	4gg\	.	.	.	.	.	.
4c\	.	4c\	.	.	.	.	.	.	.	.	.	.	.	.
!	!	!	!	!	!	!	!	!LO:S:color=dodgerblue	!	!	!	!	!	!
.	.	.	.	(8g\	.	[8ee-\	.	(8gg\	.	.	.	.	.	.
4c-X\	.	4c-X\	.	8a-\)	.	8ff 8ee-\]	.	8aa-\)	.	2f 2e- 2c-X/	2C-X\	.	2aa- 2ff 2ee- 2a-/	.
.	.	.	.	4a-\	.	4ff 4ee-\	.	4aa-\	.	.	.	.	.	.
4c-\	.	4c-\	.	.	.	.	.	.	.	.	.	.	.	.
.	.	.	.	8a-\	.	8ff 8ee-\	.	8aa-\	.	.	.	.	.	.
!!LO:PB:g=original
=70	=70	=70	=70	=70	=70	=70	=70	=70	=70	=70	=70	=70	=70	=70
*2\right	*	*	*	*	*	*	*	*	*	*	*	*	*	*
2B-\	.	2B-\	.	4b-\	.	4gg\	.	4bb-\	.	2e- 2B- 2G 2E-/	1BB-	.	[2bb- 2gg 2ee- [2b-\	.
.	.	.	.	8d\L	.	8gg\L	.	8gg\L	.	.	.	.	.	.
.	.	.	.	8f\J	.	8ee-\J	.	8ee-\J	.	.	.	.	.	.
2BB-/	.	2BB-/	.	4f\	.	2ryy	.	8dd/L	.	2f 2d 2B- 2F/	.	.	2bb-] 2ee- 2dd 2b-\]	.
.	.	.	.	.	.	.	.	8b-/	.	.	.	.	.	.
.	.	.	.	4B-'/	.	.	.	8a-/	.	.	.	.	.	.
!LO:TX:b:t=O:color=red	!	!	!	!	!	!	!	!LO:TX:a:t=O:color=red	!	!	!	!	!	!
.	.	.	.	.	.	.	.	8f/J	.	.	.	.	.	.
=71	=71	=71	=71	=71	=71	=71	=71	=71	=71	=71	=71	=71	=71	=71
!LO:TX:b:i:t=un poco piu lento.	!	!	!	!	!	!	!	!LO:TX:a:i:t=un poco piu lento.	!	!	!	!	!LO:TX:a:t=O:color=red	!
!	!	!	!	!	!	!	!	!LO:S:color=dodgerblue	!	!	!	!	!	!
[<1E-	.	4E-\	.	4G/	.	1r	.	(>8e-/	.	4e- 4B- 4G 4E-/	[1EE-	.	4ee- 4g/	.
!	!	!	!	!	!	!	!	!LO:TX:t=P:problem=mixed beam	!	!	!	!	!	!
.	.	.	.	.	.	.	.	8b-/L	p	.	.	.	.	.
!	!	!	!	!	!	!	!	!	!	!	!	!LO:DY:a:rj	!	!
.	.	8B-\L	p	8B-/L	p	.	.	8gg\	.	8B-/L	.	p	4r	.
.	.	8A-\J	.	8A-/J	.	.	.	8ee-\J)	.	8A-/J	.	.	.	.
!	!	!	!	!	!	!	!	!LO:S:color=dodgerblue	!	!	!	!	!	!
.	.	4G\	.	4G/	.	.	.	(8ee-\L	.	4G/	.	.	2r	.
.	.	.	.	.	.	.	.	8b-\	.	.	.	.	.	.
.	.	8F\L	.	8F/L	.	.	.	8a-\	.	8F/L	.	.	.	.
.	.	8E-\J	.	8E-/J	.	.	.	8g\J)	.	8E-/J	.	.	.	.
=72	=72	=72	=72	=72	=72	=72	=72	=72	=72	=72	=72	=72	=72	=72
!	!	!	!	!	!	!	!	!LO:S:color=dodgerblue	!	!	!	!	!	!
1E-_<	.	4D/	.	4D/	.	1r	.	(8f/L	.	4D/	1EE-_	.	4r	.
.	.	.	.	.	.	.	.	8b-/	.	.	.	.	.	.
.	.	4C/	.	4F/	.	.	.	8a-X/	.	4C/	.	.	4F/	.
.	.	.	.	.	.	.	.	8ee-/J)	.	.	.	.	.	.
!	!	!	!	!	!	!	!	!LO:S:color=dodgerblue	!	!	!	!	!	!
.	.	4BB-/	.	4B-/	.	.	.	(8dd\L	.	4BB-/	.	.	4B-/	.
.	.	.	.	.	.	.	.	8ee-\	.	.	.	.	.	.
.	.	4A-\	.	4d\	.	.	.	8ff\	.	4A-/	.	.	4d/	.
.	.	.	.	.	.	.	.	8b-\J)	.	.	.	.	.	.
=73	=73	=73	=73	=73	=73	=73	=73	=73	=73	=73	=73	=73	=73	=73
1E-_<	.	4G\	.	4e-\	.	4r	.	8r	.	2G/	1EE-_	.	4e-/	.
!	!	!	!	!	!	!	!	!LO:S:color=dodgerblue	!	!	!	!	!	!
.	.	.	.	.	.	.	.	(8ff\L	.	.	.	.	.	.
!	!	!	!	!	!	!LO:S:color=dodgerblue	!	!	!	!	!	!	!	!
.	.	2C^/	.	2C^/	.	(8cc\L	.	8een\	.	.	.	.	8cc\L	.
.	.	.	.	.	.	8b-\J)	.	8gg\J)	.	.	.	.	8b-\J	.
!	!	!	!	!	!	!	!	!LO:S:color=dodgerblue	!	!	!	!	!	!
.	.	.	.	.	.	4a-/	.	(8cc\L	.	4F/	.	.	4a-/	.
.	.	.	.	.	.	.	.	16dd\L	.	.	.	.	.	.
.	.	.	.	.	.	.	.	16cc\JJ)	.	.	.	.	.	.
!	!	!	!	!	!	!LO:S:color=dodgerblue	!	!LO:S:color=dodgerblue	!	!	!	!	!	!
.	.	[4C/	.	[4C/	.	(8g/L	.	(8b-/L	.	8G/L	.	.	8g/L	.
.	.	.	.	.	.	8f/J)	.	8a-/J)	.	8A-/J	.	.	8f/J	.
=74	=74	=74	=74	=74	=74	=74	=74	=74	=74	=74	=74	=74	=74	=74
!	!	!	!	!	!	!	!	!LO:S:color=dodgerblue	!	!	!	!	!	!
1E-_<	.	4C/]	.	4C/]	.	4e-/	.	(8g/L	.	4G/	1EE-_	.	4e-/	.
.	.	.	.	.	.	.	.	8f/	.	.	.	.	.	.
.	.	4C/	.	4C'/	.	4r	.	8e-/	.	4E-/	.	.	4g/	.
.	.	.	.	.	.	.	.	8g/J)	.	.	.	.	.	.
!	!	!	!	!	!	!	!	!LO:S:color=dodgerblue	!	!	!	!	!	!
.	.	2C^/	.	2C^/	.	4c/	.	(8cc\L	.	2C/	.	.	4c/	.
.	.	.	.	.	.	.	.	8ee-\	.	.	.	.	.	.
.	.	.	.	.	.	4b-/	.	8gg\	.	.	.	.	4b-/	.
.	.	.	.	.	.	.	.	8cc\J)	.	.	.	.	.	.
=75	=75	=75	=75	=75	=75	=75	=75	=75	=75	=75	=75	=75	=75	=75
!	!	!	!	!	!	!	!	!LO:S:color=dodgerblue	!	!	!	!	!	!
1E-_<	.	4r	.	4r	.	4a-/	.	(8aa-\L	.	4F/	1EE-_	.	4a-/	.
.	.	.	.	.	.	.	.	8gg\	.	.	.	.	.	.
!	!	!LO:S:color=dodgerblue	!	!LO:S:color=dodgerblue	!	!	!	!	!	!	!	!	!	!
.	.	(8f\L	.	(>8f\L	.	4an/	.	8ff\	.	8f/L	.	.	4an/	.
.	.	8e-\J	.	8e-\J	.	.	.	8ee-\J)	.	8e-/J	.	.	.	.
!	!	!	!	!	!	!	!	!LO:S:color=dodgerblue	!	!	!	!	!	!
.	.	8d\L	.	8d\L	.	4b-/	.	(8dd\L	.	8d/L	.	.	4b-/	.
.	.	8c\J	.	8c\J	.	.	.	8ff\	.	8c/J	.	.	.	.
.	.	8B-\L	.	8B-/L	.	4d/	.	8gg\	.	8B-/L	.	.	8gg\L	.
.	.	8A-\J	.	8A-/J	.	.	.	8ff\J)	.	8A-/J	.	.	8ff\J	.
=76	=76	=76	=76	=76	=76	=76	=76	=76	=76	=76	=76	=76	=76	=76
!	!	!LO:S:color=dodgerblue	!	!	!	!	!	!LO:S:color=dodgerblue	!	!	!	!	!	!
1E-]	>	(>4G\)	>	4G/)	.	2e- 2c^/	.	(8ff\L	>	4G/	1EE-_	.	8ff\L	.
.	.	.	.	.	.	.	.	8ee-\	.	.	.	.	8ee-\	.
.	.	4BB-/	.	4r	.	.	.	8dd\	.	4BB-/	.	.	8dd\	.
.	.	.	.	.	.	.	.	8cc\J)	.	.	.	.	8cc\J	.
.	.	4E-\)	.	4r	.	4r	.	8cc/L	.	4E-/	.	.	8cc\L	.
!	!	!	!	!	!	!	!	!LO:S:color=dodgerblue	!	!	!	!	!	!
.	]	.	.	.	.	.	.	(8b-/	.	.	.	.	8b-\	.
.	.	4GG/	]	4E-/	.	4B-/	.	8a-/	]	4GG/	.	.	8a-\	.
.	.	.	.	.	.	.	.	8g/J)	.	.	.	.	8g\J	.
!!LO:PB:g=original
=77	=77	=77	=77	=77	=77	=77	=77	=77	=77	=77	=77	=77	=77	=77
!	!LO:DY:rj	!	!LO:DY:rj	!	!	!	!LO:DY:rj	!	!LO:DY:rj	!	!LO:TX:b:t=P:problem=brak zakończenia ligatury	!LO:DY:rj	!	!LO:DY:rj
[1E-	pp	4.AA-/	pp	4.E-/	pp	4.c/	pp	4.f/	pp	[1E- [1AA-	1EE-]	pp	[1f 1c	pp
.	.	8AA-/	.	8E-/	.	8c/	.	8f/	.	.	.	.	.	.
.	.	4AA-/	.	4E-/	.	4c/	.	4f/	.	.	.	.	.	.
.	.	4AA-/	.	4E-/	.	4c/	.	4f/	.	.	.	.	.	.
=78	=78	=78	=78	=78	=78	=78	=78	=78	=78	=78	=78	=78	=78	=78
*rep	*	*	*	*	*	*	*	*	*	*rep	*rep	*	*rep	*
1E-_	.	2.A-\	.	1c	.	1f	.	1ee-	.	1E-_ 1AA-_	1EE-	.	1f_ 1c	.
.	.	4AA-/	.	.	.	.	.	.	.	.	.	.	.	.
*Xrep	*	*	*	*	*	*	*	*	*	*Xrep	*Xrep	*	*Xrep	*
=79	=79	=79	=79	=79	=79	=79	=79	=79	=79	=79	=79	=79	=79	=79
*rep	*	*	*	*	*	*	*	*	*	*	*	*	*rep	*
1E-_	.	4.AAn/	.	4.E-/	.	4.c/	.	4.f/	.	1E-_ 1AA-_	[1EE-	.	1f_ 1c	.
.	.	8AA/	.	8E-/	.	8c/	.	8f/	.	.	.	.	.	.
.	.	4AA/	.	4E-/	.	4c/	.	4f/	.	.	.	.	.	.
.	.	4AA/	.	4E-/	.	4c/	.	4f/	.	.	.	.	.	.
*Xrep	*	*	*	*	*	*	*	*	*	*	*	*	*Xrep	*
=80	=80	=80	=80	=80	=80	=80	=80	=80	=80	=80	=80	=80	=80	=80
*rep	*	*	*	*	*	*	*	*	*	*rep	*rep	*	*rep	*
1E-_	.	1An	.	1c	.	1f	.	1ee-	.	1E-] 1AA-]	1EE-_<	.	1f] 1c	.
*Xrep	*	*	*	*	*	*	*	*	*	*Xrep	*Xrep	*	*Xrep	*
=81	=81	=81	=81	=81	=81	=81	=81	=81	=81	=81	=81	=81	=81	=81
*rep	*	*	*	*	*	*	*	*	*	*	*	*	*	*
1E-_	.	2B-\	.	2B-/	.	1g-X	.	2ee-\	.	4E- 4BB-/	1EE-_	.	4g-X 4e-/	.
.	.	.	.	.	.	.	.	.	.	4r	.	.	4r	.
.	.	2BB-/	.	2G-X/	.	.	.	2dd-X\	.	2r	.	.	2r	.
*Xrep	*	*	*	*	*	*	*	*	*	*	*	*	*	*
=82	=82	=82	=82	=82	=82	=82	=82	=82	=82	=82	=82	=82	=82	=82
*rep	*	*	*	*	*	*	*	*	*	*	*	*	*	*
1E-_	.	2.C-X/	.	1G-X	.	1e-	.	4.dd-X\	.	1r	1EE-_	.	1r	.
.	.	.	.	.	.	.	.	8cc-X\	.	.	.	.	.	.
.	.	.	.	.	.	.	.	2cc-\	.	.	.	.	.	.
.	.	4D-X/	.	.	.	.	.	.	.	.	.	.	.	.
*Xrep	*	*	*	*	*	*	*	*	*	*	*	*	*	*
=83	=83	=83	=83	=83	=83	=83	=83	=83	=83	=83	=83	=83	=83	=83
*rep	*	*	*	*	*	*	*	*	*	*	*	*	*	*
1E-_	.	[1E-	.	2G-X/	.	4.e-/	.	4.cc-X\	.	1r	1EE-_	.	1r	.
.	.	.	.	.	.	8d-X/	.	8b-\	.	.	.	.	.	.
.	.	.	.	2Gn/	.	4d-/	.	4b-\	.	.	.	.	.	.
.	.	.	.	.	.	4d-/	.	4b-\	.	.	.	.	.	.
*Xrep	*	*	*	*	*	*	*	*	*	*	*	*	*	*
=84	=84	=84	=84	=84	=84	=84	=84	=84	=84	=84	=84	=84	=84	=84
*rep	*	*	*	*	*	*	*	*	*	*	*	*	*	*
1E-_	.	1E-]	.	2A-/	.	2d-X/	.	2.b-/	.	1r	1EE-_	.	1r	.
.	.	.	.	2B-/	.	2dn/	.	.	.	.	.	.	.	.
.	.	.	.	.	.	.	.	4a-/	.	.	.	.	.	.
*Xrep	*	*	*	*	*	*	*	*	*	*	*	*	*	*
*	*	*	*	*	*	*	*	*	*	*v	*v	*	*	*
!!LO:PB:g=original
=85	=85	=85	=85	=85	=85	=85	=85	=85	=85	=85	=85	=85	=85
*rep	*	*	*	*	*	*	*	*	*	*	*	*	*
1E-_	.	4.B-\	.	4.B-/	.	1e-	.	4.g/	.	1EE-_	.	1r	.
.	.	8A-\	.	8A-/	.	.	.	8a-/	.	.	.	.	.
.	.	4G\	.	4G/	.	.	.	4b-/	.	.	.	.	.
.	.	4c\	.	4c\	.	.	.	4e-/	.	.	.	.	.
*Xrep	*	*	*	*	*	*	*	*	*	*	*	*	*
=86	=86	=86	=86	=86	=86	=86	=86	=86	=86	=86	=86	=86	=86
*rep	*	*	*	*	*	*	*	*	*	*rep	*	*	*
1E-_	.	2F\	.	2F/	.	2c/	.	1a-	.	1EE-_	.	1r	.
.	.	2B-\	.	2B-/	.	2d/	.	.	.	.	.	.	.
*Xrep	*	*	*	*	*	*	*	*	*	*Xrep	*	*	*
=87	=87	=87	=87	=87	=87	=87	=87	=87	=87	=87	=87	=87	=87
*rep	*	*	*	*	*	*	*	*	*	*rep	*	*	*
1E-_	.	4.E-\	.	4.E-/	.	4.e-/	.	4.g/	.	1EE-_	.	1r	.
.	.	8F\	.	8F/	.	8B-/	.	8f/	.	.	.	.	.
.	.	4G\	.	4G/	.	4B-/	.	4e-/	.	.	.	.	.
.	.	4GG/	.	4G/	.	4B-/	.	4e-/	.	.	.	.	.
*Xrep	*	*	*	*	*	*	*	*	*	*Xrep	*	*	*
=88	=88	=88	=88	=88	=88	=88	=88	=88	=88	=88	=88	=88	=88
*rep	*	*	*	*	*	*	*	*	*	*rep	*	*	*
1E-_	.	2AA-/	.	1F	.	2c/	.	2e-/	.	1EE-_	.	1r	.
.	.	2BB-/	.	.	.	2B-/	.	2d/	.	.	.	.	.
*Xrep	*	*	*	*	*	*	*	*	*	*Xrep	*	*	*
=89	=89	=89	=89	=89	=89	=89	=89	=89	=89	=89	=89	=89	=89
*rep	*	*	*	*	*	*	*	*	*	*rep	*	*	*
1E-_	.	[>1BB-	.	[>1E-	.	[1e- [>1G	.	8e-/	.	1EE-_	.	8r	.
!	!	!	!	!	!	!	!	!	!	!	!	!LO:S:color=blue	!
.	.	.	.	.	.	.	.	8r	.	.	.	(8gg\L	p
!	!	!	!	!	!	!	!	!	!LO:DY:t=p.	!	!	!	!
.	.	.	.	.	.	.	.	8bb-\L	p	.	.	8bb-\	.
.	.	.	.	.	.	.	.	8gg\J	.	.	.	8gg\J	.
!	!	!	!	!	!	!	!	!LO:TX:a:t=Col Organo	!	!	!	!	!
.	.	.	.	.	.	.	.	8ff\Lyy	.	.	.	8ff\L)	.
.	.	.	.	.	.	.	.	8ee-\yy	.	.	.	8ee-\	.
.	.	.	.	.	.	.	.	8dd\yy	.	.	.	8dd\	.
.	.	.	.	.	.	.	.	8cc\Jyy	.	.	.	8cc\J	.
*Xrep	*	*	*	*	*	*	*	*	*	*Xrep	*	*	*
=90	=90	=90	=90	=90	=90	=90	=90	=90	=90	=90	=90	=90	=90
*rep	*	*rep	*	*rep	*	*rep	*	*	*	*rep	*	*	*
1E-_	.	1BB-_>	.	1E-_>	.	1e-_ 1G_>	.	8b-\Lyy	.	1EE-_	.	8b-\L	.
.	.	.	.	.	.	.	.	8ee-\yy	.	.	.	8ee-\	.
.	.	.	.	.	.	.	.	8gg\yy	.	.	.	8gg\	.
.	.	.	.	.	.	.	.	8ee-\Jyy	.	.	.	8ee-\J	.
.	.	.	.	.	.	.	.	8dd/Lyy	.	.	.	8dd/L	.
.	.	.	.	.	.	.	.	8cc/yy	.	.	.	8cc/	.
.	.	.	.	.	.	.	.	8b-/yy	.	.	.	8b-/	.
.	.	.	.	.	.	.	.	8a-/Jyy	.	.	.	8a-/J	.
*Xrep	*	*Xrep	*	*Xrep	*	*Xrep	*	*	*	*Xrep	*	*	*
=91	=91	=91	=91	=91	=91	=91	=91	=91	=91	=91	=91	=91	=91
*rep	*	*rep	*	*rep	*	*rep	*	*	*	*rep	*	*	*
1E-_	.	1BB-_>	.	1E-_>	.	1e-] 1G]	.	8g/Lyy	.	1EE-_	.	8g/L	.
.	.	.	.	.	.	.	.	8b-/yy	.	.	.	8b-/	.
.	.	.	.	.	.	.	.	8ee-/yy	.	.	.	8ee-/	.
.	.	.	.	.	.	.	.	8cc/Jyy	.	.	.	8cc/J	.
.	.	.	.	.	.	.	.	8b-/Lyy	.	.	.	8b-/L	.
.	.	.	.	.	.	.	.	8a-/yy	.	.	.	8a-/	.
.	.	.	.	.	.	.	.	8g/yy	.	.	.	8g/	.
.	.	.	.	.	.	.	.	8f/Jyy	.	.	.	8f/J	.
*Xrep	*	*Xrep	*	*Xrep	*	*Xrep	*	*	*	*Xrep	*	*	*
=92	=92	=92	=92	=92	=92	=92	=92	=92	=92	=92	=92	=92	=92
*rep	*	*rep	*	*rep	*	*	*	*	*	*rep	*	*	*
1E-]	.	1BB-]	.	1E-]	.	8e-L 8G/	.	8e-/Lyy	.	1EE-_	.	8e-/L	.
.	.	.	.	.	.	8g/	.	8g/yy	.	.	.	8g/	.
.	.	.	.	.	.	8f/	.	8f/yy	.	.	.	8f/	.
.	.	.	.	.	.	8e-/J	.	8e-/Jyy	.	.	.	8e-/J	.
.	.	.	.	.	.	8d/L	.	8d/Lyy	.	.	.	8d/L	.
.	.	.	.	.	.	8e-/	.	8e-/yy	.	.	.	8e-/	.
.	.	.	.	.	.	8B-/	.	8B-/yy	.	.	.	8B-/	.
.	.	.	.	.	.	8G/J	.	8G/Jyy	.	.	.	8G/J	.
*Xrep	*	*Xrep	*	*Xrep	*	*	*	*	*	*Xrep	*	*	*
!!LO:PB:g=original
=93	=93	=93	=93	=93	=93	=93	=93	=93	=93	=93	=93	=93	=93
4E-\	.	1E-	.	2E-^/	.	1r	.	1r	.	1EE-_	.	1E-<	.
4r	.	.	.	.	.	.	.	.	.	.	.	.	.
2r	.	.	.	2r	.	.	.	.	.	.	.	.	.
=94	=94	=94	=94	=94	=94	=94	=94	=94	=94	=94	=94	=94	=94
1r	.	2BB-/	.	2r	.	1r	.	1r	.	1EE-_	.	2BB-</	.
.	.	2B-\	.	2B-/	.	.	.	.	.	.	.	2B-</	.
=95	=95	=95	=95	=95	=95	=95	=95	=95	=95	=95	=95	=95	=95
1r	.	2G\	.	2G/	.	1r	.	1r	.	1EE-_	.	2G</	.
.	.	2e-\	.	2e-\	.	.	.	.	.	.	.	2e-\	.
=96	=96	=96	=96	=96	=96	=96	=96	=96	=96	=96	=96	=96	=96
1r	.	2B-\	.	2B-/	.	1r	.	1r	.	1EE-_	.	2B-</	.
.	.	2g\	.	2g\	.	.	.	.	.	.	.	2g\	.
=97	=97	=97	=97	=97	=97	=97	=97	=97	=97	=97	=97	=97	=97
1E-;	.	1e-;	.	1G	.	1B-;	.	1r;	.	1BB-; 1EE-]	.	1e- 1G;	.
==	==	==	==	==	==	==	==	==	==	==	==	==	==
*-	*-	*-	*-	*-	*-	*-	*-	*-	*-	*-	*-	*-	*-
!!!system-decoration: [({s1,s2}s3,s4,s5,s6,s7)]
!!!RDF**kern: > = above
!!!RDF**kern: < = below
!!!RDF**kern: | = vertical stroke
!!!RDF**kern: @ = marked note, color=dodgerblue
!!!ENC: Marta Lawrence
!!!END: 2021-07-14
!!!ENC: Anastazja Marusiak
!!!END: 2021-07-08
!!!YEC: Copyright 2022 Narodowy Instytut Fryderyka Chopina (https://polishscores.org)
!!!YEM: License CC-BY-4.0 (https://creativecommons.org/licenses/by/4.0)
